output/footprints/LKBD_MountingHole.pretty/MountingHole_M2_Slot.svg

<?xml version="1.0" standalone="no"?>
 <!DOCTYPE svg PUBLIC "-//W3C//DTD SVG 1.1//EN" 
 "http://www.w3.org/Graphics/SVG/1.1/DTD/svg11.dtd"> 
<svg
  xmlns:svg="http://www.w3.org/2000/svg"
  xmlns="http://www.w3.org/2000/svg"
  xmlns:xlink="http://www.w3.org/1999/xlink"
  version="1.1"
  width="6.6802mm" height="4.4450mm" viewBox="0.0000 0.0000 6.6802 4.4450">
<title>SVG Image created as MountingHole_M2_Slot.svg date 2025/05/12 22:52:36 </title>
  <desc>Image generated by PCBNEW </desc>
<g style="fill:#000000; fill-opacity:1.0000;stroke:#000000; stroke-opacity:1.0000;
stroke-linecap:round; stroke-linejoin:round;"
 transform="translate(0 0) scale(1 1)">
<path style="fill:#4D7FC4; fill-opacity:1.0000; stroke:none;fill-rule:evenodd;"
d="M 4.4750,0.2293
4.6058,0.2293
4.8652,0.2634
5.1179,0.3311
5.3596,0.4313
5.5861,0.5621
5.7937,0.7213
5.9787,0.9063
6.1379,1.1139
6.2687,1.3404
6.3689,1.5821
6.4366,1.8348
6.4707,2.0942
6.4707,2.3558
6.4366,2.6152
6.3689,2.8679
6.2687,3.1096
6.1379,3.3361
5.9787,3.5437
5.7937,3.7287
5.5861,3.8879
5.3596,4.0187
5.1179,4.1189
4.8652,4.1866
4.6058,4.2207
4.4750,4.2207
4.4750,4.2250
0.2250,4.2250
0.2250,0.2250
4.4750,0.2250
Z" /> 
<path style="fill:#C83434; fill-opacity:1.0000; stroke:none;fill-rule:evenodd;"
d="M 4.4750,0.2293
4.6058,0.2293
4.8652,0.2634
5.1179,0.3311
5.3596,0.4313
5.5861,0.5621
5.7937,0.7213
5.9787,0.9063
6.1379,1.1139
6.2687,1.3404
6.3689,1.5821
6.4366,1.8348
6.4707,2.0942
6.4707,2.3558
6.4366,2.6152
6.3689,2.8679
6.2687,3.1096
6.1379,3.3361
5.9787,3.5437
5.7937,3.7287
5.5861,3.8879
5.3596,4.0187
5.1179,4.1189
4.8652,4.1866
4.6058,4.2207
4.4750,4.2207
4.4750,4.2250
0.2250,4.2250
0.2250,0.2250
4.4750,0.2250
Z" /> 
</g>
<g style="fill:none; 
stroke:#585D84; stroke-width:0.1736; stroke-opacity:1; 
stroke-linecap:round; stroke-linejoin:round;">
<text x="3.3500" y="3.2667"
textLength="2.0883" font-size="2.7778" lengthAdjust="spacingAndGlyphs"
text-anchor="middle" opacity="0" stroke-opacity="0">1</text>
<g class="stroked-text"><desc>1</desc>
<path d="M3.9452 3.1798
L2.7548 3.1798
" />
<path d="M3.3500 3.1798
L3.3500 1.0964
" />
<path d="M3.3500 1.0964
L3.1516 1.3940
" />
<path d="M3.1516 1.3940
L2.9532 1.5925
" />
<path d="M2.9532 1.5925
L2.7548 1.6917
" />
</g><path style="fill:none; 
stroke:#585D84; stroke-width:0.0212; stroke-opacity:1; 
stroke-linecap:round; stroke-linejoin:round;fill:none"
d="M 4.4750,0.2293
4.6058,0.2293
4.8652,0.2634
5.1179,0.3311
5.3596,0.4313
5.5861,0.5621
5.7937,0.7213
5.9787,0.9063
6.1379,1.1139
6.2687,1.3404
6.3689,1.5821
6.4366,1.8348
6.4707,2.0942
6.4707,2.3558
6.4366,2.6152
6.3689,2.8679
6.2687,3.1096
6.1379,3.3361
5.9787,3.5437
5.7937,3.7287
5.5861,3.8879
5.3596,4.0187
5.1179,4.1189
4.8652,4.1866
4.6058,4.2207
4.4750,4.2207
4.4750,4.2250
0.2250,4.2250
0.2250,0.2250
4.4750,0.2250
Z" /> 
</g>
<g style="fill:none; 
stroke:#AFAFAF; stroke-width:0.1500; stroke-opacity:1; 
stroke-linecap:round; stroke-linejoin:round;">
<text x="2.9850" y="2.7250"
textLength="4.5357" font-size="1.3333" lengthAdjust="spacingAndGlyphs"
text-anchor="middle" opacity="0" stroke-opacity="0">REF**</text>
<g class="stroked-text"><desc>REF**</desc>
<path d="M1.6517 2.6798
L1.3183 2.2036
" />
<path d="M1.0802 2.6798
L1.0802 1.6798
" />
<path d="M1.0802 1.6798
L1.4612 1.6798
" />
<path d="M1.4612 1.6798
L1.5564 1.7274
" />
<path d="M1.5564 1.7274
L1.6040 1.7751
" />
<path d="M1.6040 1.7751
L1.6517 1.8703
" />
<path d="M1.6517 1.8703
L1.6517 2.0132
" />
<path d="M1.6517 2.0132
L1.6040 2.1084
" />
<path d="M1.6040 2.1084
L1.5564 2.1560
" />
<path d="M1.5564 2.1560
L1.4612 2.2036
" />
<path d="M1.4612 2.2036
L1.0802 2.2036
" />
<path d="M2.0802 2.1560
L2.4136 2.1560
" />
<path d="M2.5564 2.6798
L2.0802 2.6798
" />
<path d="M2.0802 2.6798
L2.0802 1.6798
" />
<path d="M2.0802 1.6798
L2.5564 1.6798
" />
<path d="M3.3183 2.1560
L2.9850 2.1560
" />
<path d="M2.9850 2.6798
L2.9850 1.6798
" />
<path d="M2.9850 1.6798
L3.4612 1.6798
" />
<path d="M3.9850 1.6798
L3.9850 1.9179
" />
<path d="M3.7469 1.8227
L3.9850 1.9179
" />
<path d="M3.9850 1.9179
L4.2231 1.8227
" />
<path d="M3.8421 2.1084
L3.9850 1.9179
" />
<path d="M3.9850 1.9179
L4.1279 2.1084
" />
<path d="M4.7469 1.6798
L4.7469 1.9179
" />
<path d="M4.5088 1.8227
L4.7469 1.9179
" />
<path d="M4.7469 1.9179
L4.9850 1.8227
" />
<path d="M4.6040 2.1084
L4.7469 1.9179
" />
<path d="M4.7469 1.9179
L4.8898 2.1084
" />
</g></g>
<g style="fill:none; 
stroke:#AFAFAF; stroke-width:0.1736; stroke-opacity:1; 
stroke-linecap:round; stroke-linejoin:round;">
<text x="3.3500" y="3.2667"
textLength="2.0883" font-size="2.7778" lengthAdjust="spacingAndGlyphs"
text-anchor="middle" opacity="0" stroke-opacity="0">1</text>
<g class="stroked-text"><desc>1</desc>
<path d="M3.9452 3.1798
L2.7548 3.1798
" />
<path d="M3.3500 3.1798
L3.3500 1.0964
" />
<path d="M3.3500 1.0964
L3.1516 1.3940
" />
<path d="M3.1516 1.3940
L2.9532 1.5925
" />
<path d="M2.9532 1.5925
L2.7548 1.6917
" />
</g><path style="fill:none; 
stroke:#AFAFAF; stroke-width:0.0212; stroke-opacity:1; 
stroke-linecap:round; stroke-linejoin:round;fill:none"
d="M 4.4750,0.2293
4.6058,0.2293
4.8652,0.2634
5.1179,0.3311
5.3596,0.4313
5.5861,0.5621
5.7937,0.7213
5.9787,0.9063
6.1379,1.1139
6.2687,1.3404
6.3689,1.5821
6.4366,1.8348
6.4707,2.0942
6.4707,2.3558
6.4366,2.6152
6.3689,2.8679
6.2687,3.1096
6.1379,3.3361
5.9787,3.5437
5.7937,3.7287
5.5861,3.8879
5.3596,4.0187
5.1179,4.1189
4.8652,4.1866
4.6058,4.2207
4.4750,4.2207
4.4750,4.2250
0.2250,4.2250
0.2250,0.2250
4.4750,0.2250
Z" /> 
</g>
<g style="fill:none; 
stroke:#C2C2C2; stroke-width:0.1000; stroke-opacity:1; 
stroke-linecap:round; stroke-linejoin:round;">
<path d="M1.4750 0.2250
L1.4750 4.2250
" />
<path d="M1.4750 0.2250
L4.4750 0.2250
" />
<path d="M1.4750 4.2250
L4.4750 4.2250
" />
<path d="M4.4750 4.2250 A2.0000 2.0000 0.0 0 0 4.4750 0.2250" />
</g> 
</svg>

<svg xmlns="http://www.w3.org/2000/svg" width="25.248" height="16.8" viewBox="0 0 6.68 4.445">
    <g stroke="none" style="fill:#000;fill-opacity:1;stroke:#000;stroke-opacity:1;stroke-linecap:round;stroke-linejoin:round">
        <path d="M4.475.23h.13l.26.033.253.068.242.1.226.131.208.16.185.184.159.208.13.226.1.242.069.253.034.26v.26l-.034.26-.068.253-.1.242-.131.226-.16.208-.184.185-.208.159-.226.13-.242.1-.253.069-.26.034h-.13v.004H.225v-4h4.25Z" style="fill:#4d7fc4;fill-opacity:1;stroke:none;fill-rule:evenodd"/>
        <path d="M4.475.23h.13l.26.033.253.068.242.1.226.131.208.16.185.184.159.208.13.226.1.242.069.253.034.26v.26l-.034.26-.068.253-.1.242-.131.226-.16.208-.184.185-.208.159-.226.13-.242.1-.253.069-.26.034h-.13v.004H.225v-4h4.25Z" style="fill:#c83434;fill-opacity:1;stroke:none;fill-rule:evenodd"/>
    </g>
    <g style="fill:none;stroke:#585d84;stroke-width:.1736;stroke-opacity:1;stroke-linecap:round;stroke-linejoin:round">
        <g class="stroked-text">
            <path d="M3.945 3.18h-1.19M3.35 3.18V1.096M3.35 1.096l-.198.298M3.152 1.394l-.199.199M2.953 1.593l-.198.099"/>
        </g>
        <path d="M4.475.23h.13l.26.033.253.068.242.1.226.131.208.16.185.184.159.208.13.226.1.242.069.253.034.26v.26l-.034.26-.068.253-.1.242-.131.226-.16.208-.184.185-.208.159-.226.13-.242.1-.253.069-.26.034h-.13v.004H.225v-4h4.25Z" style="stroke:#585d84;stroke-width:.0212;stroke-opacity:1;stroke-linecap:round;stroke-linejoin:round;fill:none"/>
    </g>
    <g class="stroked-text" style="fill:none;stroke:#afafaf;stroke-width:.15;stroke-opacity:1;stroke-linecap:round;stroke-linejoin:round">
        <path d="m1.652 2.68-.334-.476M1.08 2.68v-1M1.08 1.68h.381M1.461 1.68l.095.047M1.556 1.727l.048.048M1.604 1.775l.048.095M1.652 1.87v.143M1.652 2.013l-.048.095M1.604 2.108l-.048.048M1.556 2.156l-.095.048M1.461 2.204h-.38M2.08 2.156h.334M2.556 2.68H2.08M2.08 2.68v-1M2.08 1.68h.476M3.318 2.156h-.333M2.985 2.68v-1M2.985 1.68h.476M3.985 1.68v.238M3.747 1.823l.238.095M3.985 1.918l.238-.095M3.842 2.108l.143-.19M3.985 1.918l.143.19M4.747 1.68v.238M4.509 1.823l.238.095M4.747 1.918l.238-.095M4.604 2.108l.143-.19M4.747 1.918l.143.19"/>
    </g>
    <g style="fill:none;stroke:#afafaf;stroke-width:.1736;stroke-opacity:1;stroke-linecap:round;stroke-linejoin:round">
        <g class="stroked-text">
            <path d="M3.945 3.18h-1.19M3.35 3.18V1.096M3.35 1.096l-.198.298M3.152 1.394l-.199.199M2.953 1.593l-.198.099"/>
        </g>
        <path d="M4.475.23h.13l.26.033.253.068.242.1.226.131.208.16.185.184.159.208.13.226.1.242.069.253.034.26v.26l-.034.26-.068.253-.1.242-.131.226-.16.208-.184.185-.208.159-.226.13-.242.1-.253.069-.26.034h-.13v.004H.225v-4h4.25Z" style="stroke:#afafaf;stroke-width:.0212;stroke-opacity:1;stroke-linecap:round;stroke-linejoin:round;fill:none"/>
    </g>
    <g style="fill:none;stroke:#c2c2c2;stroke-width:.1;stroke-opacity:1;stroke-linecap:round;stroke-linejoin:round">
        <path d="M1.475.225v4M1.475.225h3M1.475 4.225h3M4.475 4.225a2 2 0 0 0 0-4"/>
    </g>
</svg>
